X: 20660
T: John Thomas's Hornpipe
R: three-two
M: 3/2
K: Dmixolydian
|:A2d2- d2e2 c2B2|A2d2 d2c2 efg2|A2d2- d2e2 c2A2|1 G2e2- e2c2 efg2:|2 cdec e2c2 efg2||
f2a2- a2gf e2c2|A2d2 d2e2 fed2|f2a2- a2gf e2d2|cde2 e2f2 gfe2|
f2a2- a2gf e2c2|A2d2 d2e2 f2g2|agfa gfe2 f2d2|c2e2- e2c2 e2f2||

